X:78
T:Green Holly Bush Jig
R:jig
C:Bruce Osborne - Jan. 2002
Z:abc by bosborne@kos.net
M:6/8
L:1/8
K:Amaj
A|Ace ece|fdf ecA|efe cBA|EGB dcB|\
Ace ece|fdf ecA|fga ecA|EGB A2:|
|:A|Ace ece|fag fec|Ace ecA|EGB dcB|\
Ace ece|fag fec|fga ecA|BAG A2:|
